!!!COM:  Berbiguier, Antoine
!!!OPR:  18 Etudes
!!!OTL:  Etude No. 4
!!!ONB:  Royal Conservatory of Music Grade 8
!!!YEC:  Copyright 2001, Joy Ollen
!!!YEM:  Rights to all derivative electronic formats reserved.
!! [Allegro]
**kern	**dynam
*MM70	*
*clefG2	*
*k[b-]	*
*M3/4	*
=-	=-
(b-q	f
16a	.
16g#	.
16a	.
16b-	.
16a	.
16gn	.
16f	.
16e	.
16d	.
16e	.
16f	.
16g	.
=2	=2
8a)	.
8dd'	.
4ff^	.
(24ee	.
24ff	.
24gg	.
24ff	.
24ee	.
24dd	.
=3	=3
24cc#	.
24dd	.
24ee	.
24dd	.
24cc#	.
24b-	.
24a	.
24g	.
24a	.
24b-	.
24a	.
24g	.
24f	.
24e	.
24d	.
24e	.
24f	.
24g)	.
=4	=4
(4.a	.
8g~)	.
4e,	.
=5	=5
(aq	.
16g	.
16f#	.
16g	.
16a	.
16b-	.
16a	.
16g	.
16fn	.
16e	.
16f	.
16g	.
16a	.
=6	=6
8b-)	.
8ee'	.
4gg^	.
(24gg	.
24aa	.
24bb-	.
24aa	.
24gg	.
24ff	.
=7	=7
24ee	.
24ff	.
24gg	.
24ff	.
24ee	.
24dd	.
24cc#	.
24dd	.
24ee	.
24dd	.
24cc#	.
24b-	.
24a	.
24b-	.
24a	.
24g	.
24f	.
24e)	.
=8	=8
(16d	>
16e	)
16f	)
16g	)
2a),	]
=9	=9
16d'	p
(16a~	.
16g#	.
16a	.
16b-	z
16a	.
16g#	.
16a	.
16dd)	.
(16a	.
16ff)	z
(16a	.
=10	=10
16ee)	.
(16a~	.
16g#	.
16a	.
16b-	z
16a	.
16g#	.
16a	.
16gn)	.
(16a	.
16e)	.
(16a	.
=11	=11
16f),	.
(16a~	.
16g#)	.
(16a~	.
16b-)	z
(16a~	.
16g#)	.
(16a~	.
16dd)	.
(16a~	.
16ff)	z
(16a~	.
=12	=12
16ee)	.
(16a~	.
16g#)	.
(16a	.
16b-)	z
(16a~	.
16g#)	.
(16a	.
16gn)	.
(16a~	.
16e)	.
(16a~	.
=13	=13
16f),	.
(16a~	.
16g#	.
16a	.
16b-	z
16a	.
16g#	.
16a	.
16dd')	.
(16a~	.
16ff)	z
(16a~	.
=14	=14
16ee-)	.
(16b-~	.
16a	.
16b-	.
16cc	.
16b-	.
16a	.
16b-	.
16ee-)	.
(16b-~	.
16gg)	.
(16b-~	.
=15	=15
8bb-~)	.
(16en	<
16d#	(
16e	(
16g	(
16b-	(
16cc#	(
16ee	(
16gg	(
16.bb-~)	(
32bb-'	(
=16	=16
16aa'	Xf
(16a	Xp
16g#	.
16a	.
16b-	z
16a	.
16g#	.
16a)	.
(16b-	<
16bn	(
16ccn	(
16cc#)	(
=17	=17
8dd'	f
(32aa	>
32ggn	)
32ff	)
32ee	)
.	]
8dd')	f
(32a	>
32g	)
32f	)
32e	)
.	]
8d')	Xmf
8r	.
=18	=18
16f'	.
(16cc~	.
16a	.
16cc	.
16ff)	.
(16cc~	.
16a	.
16cc	.
16aa)	.
(16cc~	.
16a	.
16cc)	.
=19	=19
(24b-	.
24dd-	.
24een	.
24gg	.
24een	.
24dd-	.
24b-	.
24dd-	.
24een	.
24gg	.
24een	.
24dd-	.
24b-	.
24dd-	.
24een	.
24gg	.
24een	.
24dd-),	.
=20	=20
16f'	.
(16cc~	.
16a	.
16cc	.
16ff)	.
(16cc~	.
16a	.
16cc	.
16aa)	.
(16cc~	.
16a	.
16cc)	.
=21	=21
(24b-	.
24dd-	.
24een	.
24gg	.
24een	.
24dd-	.
24b-	.
24dd-	.
24een	.
24gg	.
24een	.
24dd-	.
24b-	.
24dd-	.
24een	.
24gg	.
24een	.
24dd-	.
=22	=22
16a),	.
(16cc~	.
16ff)	.
(16cc~	.
16aa)	.
(16cc~	.
16ff)	.
(16cc~	.
16a)	.
(16cc~	.
16ff)	.
(16cc~	.
=23	=23
16b-)	.
(16ddn~	.
16ff)	.
(16dd~	.
16bb-)	.
(16dd~	.
16ff)	.
(16dd~	.
16b-)	.
(16dd~	.
16ff)	.
(16dd~	.
=24	=24
16bn)	.
(16dd~	.
16ff)	.
(16dd~	.
16bbn)	.
(16dd~	.
16ff)	.
(16dd~	.
16bn)	.
(16dd~	.
16ff)	.
(16dd	.
=25	=25
16cc)'	.
(16f~	<
16e	(
16f	(
16g	(
16a	(
16b-	(
16cc	(
16dd	(
16ee	(
16ff	(
16gg	(
=26	=26
16aa	(
16bb-	(
16ccc	(
16ddd	(
16eee	(
16fff	(
16eee	(
16ddd	(
.	Xf
16ccc	>
16bbn	)
16bb-	)
16aa)	)
=27	=27
(2.ggT	)
.	]
=28	=28
16ff)	Xmp
!! Score indicates that the following passage should be played with the thumb on the special B flat lever.
16r	.
(8b-	>
8a	)
8g	)
8f	)
8e	]
=29	=29
16d)	Xp
(16a	.
16g#	.
16a	.
16b-	z
16a	.
16g#	.
16a)	.
(16f	.
16a	.
16d	.
16a)	.
=30	=30
(32e	f
32gn	.
32b-	.
32g	.
32e	.
32g	.
32b-	.
32g	.
32e	.
32g	.
32b-	.
32g	.
32e	.
32g	.
32b-	.
32g	.
32e	.
32g	.
32b-	.
32g	.
32e	.
32g	.
32b-	.
32cc#	.
=31	=31
16dd'),	p
(16a~	.
16g#	.
16a	.
16b-	z
16a	.
16g#	.
16a)	.
(16f	.
16a	.
16d	.
16a)	.
=32	=32
(32e	f
32gn	.
32b-	.
32g	.
32e	.
32g	.
32b-	.
32g	.
32e	.
32g	.
32b-	.
32g	.
32e	.
32g	.
32b-	.
32g	.
32e	.
32g	.
32b-	.
32g	.
32e	.
32g	.
32b-	.
32cc#	.
=31	=33
16dd'),	.
(16a~	Xp
16f	.
!! Score indicates that the special B flat lever is no longer used.
16a	.
16dd)	.
(16a~	.
16ff)	.
(16a~	.
16dd)	.
(16a~	.
16ff)	.
(16a~	.
=34	=34
16dd)	.
(16a	<
16f#)	(
(16a	(
16dd)	(
(16a	(
16ff#)	(
(16a	(
16dd)	(
(16a	(
16ff#)	(
(16a	(
=35	=35
16gg)	(
(16b-	(
16g)	(
(16b-	(
16dd)	(
(16b-	(
16gg)	(
(16b-	(
16dd)	(
(16b-	(
16gg)	(
(16b-	(
=36	=36
16gg#),	(
(16bn	(
16g#)	(
(16bn	(
16dd)	(
(16bn	(
16gg#)	(
(16bn	(
16dd)	(
(16bn	(
16gg#)	(
(16bn	(
=37	=37
(16a	f
16aa)	.
(16b-	.
16bb-)	.
(16a	.
16aa)	.
(16gn	.
16gg)	.
(16f#	.
16ff#)	.
(16fn	.
16ffn)	.
=38	=38
(2.eet	.
=39	=39
16dd'),	.
(16a	p
16g#	.
16a	.
16b-	.
16a	.
16g#	.
16a	.
16dd	.
(16a	.
16ff#)	.
(16a	.
=40	=40
16ggn)	>
(16dd	)
16b-	)
16g)	Xpp
.	]
(16gg	Xp
.	>
16dd	)
16b-	)
16g)	Xpp
.	]
(16e	Xp
16g	.
16b-	.
16cc#)	.
=41	=41
16dd'	.
(16a	.
16g#	.
16a	.
16b-	.
16a	.
16g#	.
16a	.
16dd)	.
(16a	.
16ff#)	.
(16a	.
=42	=42
16ggn)	.
(16dd	.
16b-	.
16g)	.
(16gg	.
16dd	.
16b-	.
16g)	.
(16b-	.
16a	.
16g	.
16e)	.
=43	=43
(16d	f
.	<
16e	(
16f	(
16g	(
.	]
16a	Xff
.	>
16g	)
16f	)
16e	)
8d)	]
.	Xf
8r	.
==	==
*-	*-
